svg/logos/jumpstart.svg

<?xml version="1.0" encoding="UTF-8" standalone="no"?>
<svg
   xmlns:dc="http://purl.org/dc/elements/1.1/"
   xmlns:cc="http://creativecommons.org/ns#"
   xmlns:rdf="http://www.w3.org/1999/02/22-rdf-syntax-ns#"
   xmlns:svg="http://www.w3.org/2000/svg"
   xmlns="http://www.w3.org/2000/svg"
   xmlns:sodipodi="http://sodipodi.sourceforge.net/DTD/sodipodi-0.dtd"
   xmlns:inkscape="http://www.inkscape.org/namespaces/inkscape"
   width="54.292103pt"
   height="54.276031pt"
   viewBox="0 0 54.292103 54.276031"
   version="1.1"
   id="svg43"
   sodipodi:docname="jumpstart.svg"
   inkscape:version="0.92.2 5c3e80d, 2017-08-06">
  <metadata
     id="metadata49">
    <rdf:RDF>
      <cc:Work
         rdf:about="">
        <dc:format>image/svg+xml</dc:format>
        <dc:type
           rdf:resource="http://purl.org/dc/dcmitype/StillImage" />
      </cc:Work>
    </rdf:RDF>
  </metadata>
  <defs
     id="defs47" />
  <sodipodi:namedview
     pagecolor="#ffffff"
     bordercolor="#666666"
     borderopacity="1"
     objecttolerance="10"
     gridtolerance="10"
     guidetolerance="10"
     inkscape:pageopacity="0"
     inkscape:pageshadow="2"
     inkscape:window-width="1918"
     inkscape:window-height="2136"
     id="namedview45"
     showgrid="false"
     inkscape:zoom="2.765625"
     inkscape:cx="37.298079"
     inkscape:cy="36.176599"
     inkscape:window-x="3840"
     inkscape:window-y="22"
     inkscape:window-maximized="0"
     inkscape:current-layer="svg43" />
  <g
     id="#ffffffff"
     transform="translate(-4.84,-4.8564192)" />
  <g
     id="#4c76b0ff"
     transform="translate(-4.84,-4.8564192)">
    <path
       d="m 27.6,5.29 c 2.93,-0.66 5.97,-0.49 8.92,0 C 35.71,6.46 34.91,7.62 34.08,8.77 30.14,8.53 26.17,9.2 22.53,10.71 24.36,9.04 25.8,6.99 27.6,5.29 Z"
       id="path3"
       inkscape:connector-curvature="0"
       style="opacity:1;fill:#4c76b0" />
    <path
       d="m 6.34,23.5 c 2.1,-1.31 4.2,-2.63 6.13,-4.18 -1.85,2.94 -3.02,6.25 -3.59,9.67 -1.31,1.26 -2.66,2.49 -4.04,3.7 0,-3.07 0.53,-6.09 1.28,-9.05 z"
       id="path5"
       inkscape:connector-curvature="0"
       style="opacity:1;fill:#4c76b0" />
  </g>
  <g
     id="#2996c9ff"
     transform="translate(-4.84,-4.8564192)">
    <path
       d="M 6.34,23.5 C 9.26,14.1 17.88,6.78 27.6,5.29 c -1.8,1.7 -3.24,3.75 -5.07,5.42 -4.05,1.93 -7.57,4.87 -10.06,8.61 -1.93,1.55 -4.03,2.87 -6.13,4.18 z"
       id="path8"
       inkscape:connector-curvature="0"
       style="opacity:1;fill:#2996c9" />
  </g>
  <g
     id="#853f87ff"
     transform="translate(-4.84,-4.8564192)">
    <path
       d="m 36.52,5.29 c 2.32,0.42 4.59,1.1 6.76,2.05 -0.61,1.14 -1.21,2.28 -1.82,3.42 -2.35,-1 -4.85,-1.61 -7.38,-1.99 0.83,-1.15 1.63,-2.31 2.44,-3.48 z"
       id="path11"
       inkscape:connector-curvature="0"
       style="opacity:1;fill:#853f87" />
    <path
       d="m 4.84,32.69 c 1.38,-1.21 2.73,-2.44 4.04,-3.7 -0.33,2.76 -0.09,5.55 0.45,8.27 -1.08,0.83 -2.15,1.64 -3.24,2.46 L 5.95,39.83 C 5.41,37.48 5.1,35.08 4.84,32.69 Z"
       id="path13"
       inkscape:connector-curvature="0"
       style="opacity:1;fill:#853f87" />
  </g>
  <g
     id="#b9196dff"
     transform="translate(-4.84,-4.8564192)">
    <path
       d="m 43.28,7.34 c 3.59,1.68 6.73,4.16 9.35,7.12 -0.59,1.31 -1.18,2.61 -1.76,3.92 -2.4,-3.32 -5.71,-5.91 -9.41,-7.62 0.61,-1.14 1.21,-2.28 1.82,-3.42 z"
       id="path16"
       inkscape:connector-curvature="0"
       style="opacity:1;fill:#b9196d" />
    <path
       d="m 27.87,23.83 c 0.84,-3.8 5.31,-3.69 8.35,-3.17 -0.07,2.44 -0.07,4.89 -0.06,7.34 -2.54,2.48 -5.38,4.61 -8.33,6.56 0.03,-3.58 -0.1,-7.16 0.04,-10.73 z"
       id="path18"
       inkscape:connector-curvature="0"
       style="opacity:1;fill:#b9196d" />
    <path
       d="m 6.09,39.72 c 1.09,-0.82 2.16,-1.63 3.24,-2.46 1.12,4.64 3.65,8.89 7.16,12.12 -1.62,0.53 -3.32,0.5 -5,0.33 -2.38,-2.96 -4.44,-6.27 -5.4,-9.99 z"
       id="path20"
       inkscape:connector-curvature="0"
       style="opacity:1;fill:#b9196d" />
  </g>
  <g
     id="#db1a75ff"
     transform="translate(-4.84,-4.8564192)">
    <path
       d="m 52.63,14.46 c 2.93,3.38 4.78,7.52 5.9,11.81 l -0.38,1 c -0.51,1.33 -1.01,2.65 -1.5,3.99 -0.52,-0.89 -1.02,-1.78 -1.51,-2.67 -0.79,-3.63 -2.11,-7.17 -4.27,-10.21 0.58,-1.31 1.17,-2.61 1.76,-3.92 z"
       id="path23"
       inkscape:connector-curvature="0"
       style="opacity:1;fill:#db1a75" />
    <path
       d="m 27.83,34.56 c 2.95,-1.95 5.79,-4.08 8.33,-6.56 -0.05,4.01 0.09,8.04 -0.07,12.05 -0.73,3.92 -5.22,3.62 -8.27,3.42 0,-2.97 -0.02,-5.94 0.01,-8.91 z"
       id="path25"
       inkscape:connector-curvature="0"
       style="opacity:1;fill:#db1a75" />
    <path
       d="m 11.49,49.71 c 1.68,0.17 3.38,0.2 5,-0.33 2.51,2.02 5.27,3.76 8.35,4.77 -1.23,0.88 -2.46,1.77 -3.68,2.66 -3.7,-1.63 -6.96,-4.11 -9.67,-7.1 z"
       id="path27"
       inkscape:connector-curvature="0"
       style="opacity:1;fill:#db1a75" />
  </g>
  <g
     id="#ca1971ff"
     transform="translate(-4.84,-4.8564192)">
    <path
       d="m 40.48,21.49 c 2.54,-2.6 7.38,0.06 6.82,3.56 -0.21,2.94 -3.98,4.83 -6.38,3.02 -2.28,-1.33 -2.51,-4.95 -0.44,-6.58 z"
       id="path30"
       inkscape:connector-curvature="0"
       style="opacity:1;fill:#ca1971" />
    <path
       d="m 19.41,35.44 c 2.75,-1.13 6.06,1.54 5.46,4.48 -0.2,2.99 -4.2,4.76 -6.49,2.75 -2.73,-1.72 -2.03,-6.32 1.03,-7.23 z"
       id="path32"
       inkscape:connector-curvature="0"
       style="opacity:1;fill:#ca1971" />
  </g>
  <g
     id="#ee5e55ff"
     transform="translate(-4.84,-4.8564192)">
    <path
       d="m 58.15,27.27 0.35,-0.85 c 0.5,2.51 0.72,5.06 0.6,7.62 -1.33,1.75 -2.94,3.25 -4.73,4.5 0.9,-3.24 1.01,-6.62 0.77,-9.95 0.49,0.89 0.99,1.78 1.51,2.67 0.49,-1.34 0.99,-2.66 1.5,-3.99 z"
       id="path35"
       inkscape:connector-curvature="0"
       style="opacity:1;fill:#ee5e55" />
    <path
       d="m 24.84,54.15 c 3.48,1 7.13,1.39 10.74,0.94 -2.24,1.75 -4.39,4.16 -7.55,3.66 -2.38,-0.26 -4.68,-1 -6.87,-1.94 1.22,-0.89 2.45,-1.78 3.68,-2.66 z"
       id="path37"
       inkscape:connector-curvature="0"
       style="opacity:1;fill:#ee5e55" />
  </g>
  <g
     id="#f3a53cff"
     transform="translate(-4.84,-4.8564192)">
    <path
       d="m 54.37,38.54 c 1.79,-1.25 3.4,-2.75 4.73,-4.5 -0.96,15.08 -16.08,27.45 -31.07,24.71 3.16,0.5 5.31,-1.91 7.55,-3.66 8.71,-1.56 16.26,-8.02 18.79,-16.55 z"
       id="path40"
       inkscape:connector-curvature="0"
       style="opacity:1;fill:#f3a53c" />
  </g>
</svg>

<?xml version="1.0" encoding="UTF-8" ?>
<!DOCTYPE svg PUBLIC "-//W3C//DTD SVG 1.1//EN" "http://www.w3.org/Graphics/SVG/1.1/DTD/svg11.dtd">
<svg width="64pt" height="64pt" viewBox="0 0 64 64" version="1.1" xmlns="http://www.w3.org/2000/svg">
<g id="#ffffffff">
</g>
<g id="#4c76b0ff">
<path fill="#4c76b0" opacity="1.00" d=" M 27.60 5.29 C 30.53 4.63 33.57 4.80 36.52 5.29 C 35.71 6.46 34.91 7.62 34.08 8.77 C 30.14 8.53 26.17 9.20 22.53 10.71 C 24.36 9.04 25.80 6.99 27.60 5.29 Z" />
<path fill="#4c76b0" opacity="1.00" d=" M 6.34 23.50 C 8.44 22.19 10.54 20.87 12.47 19.32 C 10.62 22.26 9.45 25.57 8.88 28.99 C 7.57 30.25 6.22 31.48 4.84 32.69 C 4.84 29.62 5.37 26.60 6.12 23.64 L 6.34 23.50 Z" />
</g>
<g id="#2996c9ff">
<path fill="#2996c9" opacity="1.00" d=" M 6.34 23.50 C 9.26 14.10 17.88 6.78 27.60 5.29 C 25.80 6.99 24.36 9.04 22.53 10.71 C 18.48 12.64 14.96 15.58 12.47 19.32 C 10.54 20.87 8.44 22.19 6.34 23.50 Z" />
</g>
<g id="#853f87ff">
<path fill="#853f87" opacity="1.00" d=" M 36.52 5.29 C 38.84 5.71 41.11 6.39 43.28 7.34 C 42.67 8.48 42.07 9.62 41.46 10.76 C 39.11 9.76 36.61 9.15 34.08 8.77 C 34.91 7.62 35.71 6.46 36.52 5.29 Z" />
<path fill="#853f87" opacity="1.00" d=" M 4.84 32.69 C 6.22 31.48 7.57 30.25 8.88 28.99 C 8.55 31.75 8.79 34.54 9.33 37.26 C 8.25 38.09 7.18 38.90 6.09 39.72 L 5.95 39.83 C 5.41 37.48 5.10 35.08 4.84 32.69 Z" />
</g>
<g id="#b9196dff">
<path fill="#b9196d" opacity="1.00" d=" M 43.28 7.34 C 46.87 9.02 50.01 11.50 52.63 14.46 C 52.04 15.77 51.45 17.07 50.87 18.38 C 48.47 15.06 45.16 12.47 41.46 10.76 C 42.07 9.62 42.67 8.48 43.28 7.34 Z" />
<path fill="#b9196d" opacity="1.00" d=" M 27.87 23.83 C 28.71 20.03 33.18 20.14 36.22 20.66 C 36.15 23.10 36.15 25.55 36.16 28.00 C 33.62 30.48 30.78 32.61 27.83 34.56 C 27.86 30.98 27.73 27.40 27.87 23.83 Z" />
<path fill="#b9196d" opacity="1.00" d=" M 6.09 39.72 C 7.18 38.90 8.25 38.09 9.33 37.26 C 10.45 41.90 12.98 46.15 16.49 49.38 C 14.87 49.91 13.17 49.88 11.49 49.71 C 9.11 46.75 7.05 43.44 6.09 39.72 Z" />
</g>
<g id="#db1a75ff">
<path fill="#db1a75" opacity="1.00" d=" M 52.63 14.46 C 55.56 17.84 57.41 21.98 58.53 26.27 L 58.15 27.27 C 57.64 28.60 57.14 29.92 56.65 31.26 C 56.13 30.37 55.63 29.48 55.14 28.59 C 54.35 24.96 53.03 21.42 50.87 18.38 C 51.45 17.07 52.04 15.77 52.63 14.46 Z" />
<path fill="#db1a75" opacity="1.00" d=" M 27.83 34.56 C 30.78 32.61 33.62 30.48 36.16 28.00 C 36.11 32.01 36.25 36.04 36.09 40.05 C 35.36 43.97 30.87 43.67 27.82 43.47 C 27.82 40.50 27.80 37.53 27.83 34.56 Z" />
<path fill="#db1a75" opacity="1.00" d=" M 11.49 49.71 C 13.17 49.88 14.87 49.91 16.49 49.38 C 19.00 51.40 21.76 53.14 24.84 54.15 C 23.61 55.03 22.38 55.92 21.16 56.81 C 17.46 55.18 14.20 52.70 11.49 49.71 Z" />
</g>
<g id="#ca1971ff">
<path fill="#ca1971" opacity="1.00" d=" M 40.48 21.49 C 43.02 18.89 47.86 21.55 47.30 25.05 C 47.09 27.99 43.32 29.88 40.92 28.07 C 38.64 26.74 38.41 23.12 40.48 21.49 Z" />
<path fill="#ca1971" opacity="1.00" d=" M 19.41 35.44 C 22.16 34.31 25.47 36.98 24.87 39.92 C 24.67 42.91 20.67 44.68 18.38 42.67 C 15.65 40.95 16.35 36.35 19.41 35.44 Z" />
</g>
<g id="#ee5e55ff">
<path fill="#ee5e55" opacity="1.00" d=" M 58.15 27.27 L 58.50 26.42 C 59.00 28.93 59.22 31.48 59.10 34.04 C 57.77 35.79 56.16 37.29 54.37 38.54 C 55.27 35.30 55.38 31.92 55.14 28.59 C 55.63 29.48 56.13 30.37 56.65 31.26 C 57.14 29.92 57.64 28.60 58.15 27.27 Z" />
<path fill="#ee5e55" opacity="1.00" d=" M 24.84 54.15 C 28.32 55.15 31.97 55.54 35.58 55.09 C 33.34 56.84 31.19 59.25 28.03 58.75 C 25.65 58.49 23.35 57.75 21.16 56.81 C 22.38 55.92 23.61 55.03 24.84 54.15 Z" />
</g>
<g id="#f3a53cff">
<path fill="#f3a53c" opacity="1.00" d=" M 54.37 38.54 C 56.16 37.29 57.77 35.79 59.10 34.04 C 58.14 49.12 43.02 61.49 28.03 58.75 C 31.19 59.25 33.34 56.84 35.58 55.09 C 44.29 53.53 51.84 47.07 54.37 38.54 Z" />
</g>
</svg>
